X:1
T:Your shining eyes
T:Your shining eyes
T:Thomas Bateson (ca. 1570-1630)
C:Thomas Bateson (ca. 1570-1630)
%%score [ 1 2 3 ]
L:1/8
Q:1/4=60
M:2/2
K:F
V:1 treble nm="S"
V:2 treble nm="A"
V:3 bass nm="B"
V:1
 A2 A G F3 G | A2 G2 A4 | A2 A B c2 A2 | G2 G2 A4 | A2 E F G3 D | F2 E2 D4 | z2 A2 A2 A2 | %7
w: Your shin- ing eyes and|gold- en hair,|your li- ly- ros- ed|lips most fair,|your li- ly- ros- ed|lips most fair,|your oth- er|
 G2 D2 F2 (ED) | E3 c c2 c2 | B2 A2 A2 G2 | A8 | z4 d2 c B | c2 A2 B3 c | A4 A2 G F | G2 D2 F2 E2 | %15
w: beau- ties that ex- *|cel, your oth- er|beau- ties that ex-|cel,|men can- not|choose but like them|well, men can- not|choose but like them|
 ^F4 z2 A2 |: A3 B c4- | c2 B2 A2 G2 | A3 A G2 F2 | E4 z2 d2 | B2 G2 c3 B | A2 G2 A4 | %22
w: well, but|when for them|_ they say they'll|die, they say they'll|die, be-|lieve them not, they|do but lie,|
 z2 A2 F2 D2 | B3 A G2 F2 | E4 A4 | B4 G4 | c3 B A2 G2 | F2 D2 G4- | G2 F2 E2 D2 | E2 (F2 E4) |1 %30
w: be- lieve them|not, they do but|lie, be-|lieve them|not, they do but|lie, be- lieve|_ them not, they|do but _|
 ^F4 z2 A2 :|2 ^F8 |] %32
w: lie, but|lie.|
V:2
 F2 F E D2 D2 | D2 D2 ^C4 | =C2 E D E2 F2 | F2 E2 F4 | F2 C D E2 D2 | D2 ^C2 D2 F2 | F2 F2 E2 =C2 | %7
w: Your shin- ing eyes and|gold- en hair,|your li- ly- ros- ed|lips most fair,|your li- ly- ros- ed|lips most fair, your|oth- er beau- ties|
 D6 (^C=B,) | ^C2 E2 E3 F | G2 (FE) D2 D2 | ^C4 F2 E D | E2 A2 F2 G2 | A2 F2 F2 E2 | F4 F2 C D | %14
w: that ex- *|cel, your oth- er|beau- ties _ that ex-|cel, men can- not|choose but like them|well, but like them|well, men can- not|
 E2 D2 D2 ^C2 | D4 z2 F2 |: F3 G A2 (GF | E2) F4 E2 | F3 F E2 D2 | ^C2 A2 F2 D2 | G3 F E (D E2) | %21
w: choose but like them|well, but|when for them they _|_ say they'll|die, they say they'll|die, be- lieve them|noth, they do but _|
 F2 D2 ^C2 E2 | F4 D4 | G3 F E2 D2 | ^C2 A2 F2 D2 | G3 F E D =C2- | C (D E2) F3 E | D2 F2 E2 D2 | %28
w: lie, but lie, be-|lieve them|not, they do but|lie, be- lieve them|not, they do but lie,|_ be- * lieve them|not, they do but|
 ^C2 A,2 D4- | D4 ^C4 |1 D4 z2 F2 :|2 D8 |] %32
w: lie, they do|_ but|lie, but|lie.|
V:3
 D,2 D, E, F,2 D,2 | F,2 B,2 A,4 | A,2 C B, A,3 B, | C2 C,2 F,4 | F,2 A, A, E, F, G,2 | %5
w: Your shin- ing eyes and|gold- en hair,|your li- ly- ros- ed|lips most fair,|your li- ly- ros- * ed|
 D,2 A,2 D,2 D2 | D2 D2 C2 A,2 | B,2 B,2 A,4 | z2 A,2 A,2 A,2 | G,2 A,2 B,2 B,2 | A,4 D2 C B, | %11
w: lips most fair, your|oth- er beau- ties|that ex- cel,|your oth- er|beau- ties that ex-|cel, men can- not|
 C2 A,2 B,2 B,2 | A,2 A,2 G,2 G,2 | F,4 F,2 E, D, | ^C,2 D,2 A,2 A,2 | D,4 z2 D2 |: D3 D C2 C2 | %17
w: choose but like them|well, but like them|well, men can- not|choose but like them|well, but|when for them they|
 C4 C4 | F,3 F, C,2 D,2 | A,2 A,2 B,4 | G,4 A,3 G, | F,2 B,2 A,2 A,2 | F,2 D,2 B,3 A, | G,4 G,4 | %24
w: say they'll|die, they say they'll|die, be- lieve|them not, they|do but lie, be-|lieve them not, they|do but|
 A,4 z2 D2 | B,2 G,2 C3 B, | A,3 G, F,4- | F,4 G,4 | A,8- | A,4 A,4 |1 D,4 z2 D2 :|2 D,8 |] %32
w: lie, be-|lieve them not, they|do but lie,|_ they|do|_ but|lie, but|lie.|

